;FLAVOR:Marlin
;TIME:20305
;Filament used: 110.947m
;Layer height: 0.3
;MINX:265.277
;MINY:246.7
;MINZ:0.3
;MAXX:371.877
;MAXY:353.3
;MAXZ:99.9
;TARGET_MACHINE.NAME:Unknown
;ARCWELDERPROCESSED
; Postprocessed by [ArcWelder](https://github.com/FormerLurker/ArcWelderLib)
; Copyright(C) 2021 - Brad Hochgesang
; Version: 1.2.0, Branch: HEAD, BuildDate: 2021-11-21T20:25:43Z
; resolution=0.05mm
; path_tolerance=10.0%
; max_radius=1000.00mm
; firmware_compensation=True
; mm_per_arc_segment=1.00mm
; min_arc_segments=36
; default_xyz_precision=4
; default_e_precision=6
; extrusion_rate_variance_percent=0.0%

;Generated with Cura_SteamEngine 5.8.1
M140 S80
M105
M190 S80
M104 S290
M105
M109 S290
M82 ;absolute extrusion mode
G28 ;Home
M106 S255
G1 Z15.0 F6000 ;Move the platform down 15mm
;Prime the extruder
G92 E0
G1 F200 E3
G92 E0
G92 E0
G92 E0
G1 F3000 E-1
;LAYER_COUNT:333
;LAYER:0
M107
G1 F600 Z1.3
G0 F4500 X266.182 Y247.725 Z1.3
;TYPE:SKIRT
G1 F600 Z0.3
G1 F2100 E0
G1 F3000 X266.832 Y247.221 E0.05601
G1 X267.587 Y246.841 E0.11357
G1 X268.48 Y246.7 E0.17514
G1 X368.787 Y246.7 E7.00606
G1 X369.689 Y246.908 E7.0691
G1 X370.045 Y247.052 E7.09525
G1 X370.852 Y247.605 E7.16187
G1 X371.356 Y248.255 E7.21788
G1 X371.736 Y249.01 E7.27545
G1 X371.877 Y249.903 E7.33701
G1 X371.877 Y350.173 E14.16541
G1 X371.688 Y351.076 E14.22824
G1 X371.289 Y351.89 E14.28997
G1 X370.842 Y352.373 E14.33479
G1 X370.402 Y352.732 E14.37346
G1 X369.833 Y353.04 E14.41752
G1 X368.91 Y353.3 E14.48283
G1 X268.367 Y353.3 E21.32982
G1 X267.465 Y353.092 E21.39286
G1 X267.109 Y352.948 E21.41901
G1 X266.302 Y352.395 E21.48563
G1 X265.798 Y351.745 E21.54164
G1 X265.418 Y350.99 E21.5992
G1 X265.277 Y350.097 E21.66077
G1 X265.277 Y249.79 E28.49169
G1 X265.485 Y248.888 E28.55473
G1 X265.629 Y248.532 E28.58088
G1 X266.182 Y247.725 E28.6475
G0 F4500 X266.624 Y248.142
G1 F3000 X267.154 Y247.731 E28.69318
G1 X267.773 Y247.419 E28.74038
G1 X268.529 Y247.3 E28.7925
G1 X368.717 Y247.3 E35.61531
G1 X369.554 Y247.493 E35.67381
G1 X369.758 Y247.583 E35.68899
G1 X370.435 Y248.047 E35.74489
G1 X370.846 Y248.577 E35.79056
G1 X371.158 Y249.196 E35.83777
G1 X371.277 Y249.952 E35.88988
G1 X371.277 Y350.112 E42.71079
G1 X371.117 Y350.878 E42.76408
G1 X370.789 Y351.547 E42.81482
G1 X370.402 Y351.965 E42.85362
G1 X370.028 Y352.263 E42.88618
G1 X369.606 Y352.481 E42.91853
G1 X368.829 Y352.7 E42.9735
G1 X268.437 Y352.7 E49.81021
G1 X267.6 Y352.507 E49.86871
G1 X267.396 Y352.417 E49.88389
G1 X266.719 Y351.953 E49.93979
G1 X266.308 Y351.423 E49.98546
G1 X265.996 Y350.804 E50.03267
G1 X265.877 Y350.048 E50.08478
G1 X265.877 Y249.86 E56.9076
G1 X266.07 Y249.023 E56.96609
G1 X266.16 Y248.819 E56.98128
G1 X266.624 Y248.142 E57.03717
G0 F4500 X267.066 Y248.558
G1 F3000 X267.424 Y248.267 E57.06859
G1 X267.959 Y247.997 E57.1094
G1 X268.577 Y247.9 E57.152
G1 X368.647 Y247.9 E63.96678
G1 X369.419 Y248.078 E64.02073
G1 X370.019 Y248.489 E64.07026
G1 X370.31 Y248.847 E64.10168
G1 X370.58 Y249.382 E64.14249
G1 X370.677 Y250 E64.18509
G1 X370.677 Y350.052 E70.99864
G1 X370.546 Y350.681 E71.0424
G1 X370.289 Y351.204 E71.08208
G1 X370.028 Y351.496 E71.10875
G1 X369.654 Y351.794 E71.14132
G1 X369.443 Y351.903 E71.15749
G1 X368.744 Y352.1 E71.20695
G1 X268.507 Y352.1 E78.0331
G1 X267.735 Y351.922 E78.08705
G1 X267.135 Y351.511 E78.13658
G1 X266.844 Y351.153 E78.168
G1 X266.574 Y350.618 E78.20881
G1 X266.477 Y350 E78.25141
G1 X266.477 Y249.93 E85.06619
G1 X266.655 Y249.158 E85.12014
G1 X267.066 Y248.558 E85.16967
G0 F4500 X267.464 Y249.007
G1 F3000 X267.215 Y249.402 E85.20147
G1 X267.077 Y250 E85.24326
G1 X267.077 Y350 E92.05327
G1 X267.152 Y350.431 E92.08307
G1 X267.38 Y350.883 E92.11754
G1 X267.584 Y351.113 E92.13848
G1 X267.979 Y351.362 E92.17028
G1 X268.577 Y351.5 E92.21207
G1 X368.659 Y351.5 E99.02767
G1 X369.28 Y351.325 E99.07161
G1 X369.654 Y351.027 E99.10417
G1 X369.785 Y350.868 E99.1182
G1 X370.007 Y350.416 E99.15249
G1 X370.077 Y350 E99.18122
G1 X370.077 Y250 E105.99123
G1 X370.002 Y249.569 E106.02103
G1 X369.774 Y249.117 E106.0555
G1 X369.57 Y248.887 E106.07644
G1 X369.175 Y248.638 E106.10824
G1 X368.577 Y248.5 E106.15003
G1 X268.577 Y248.5 E112.96004
G1 X268.146 Y248.575 E112.98984
G1 X267.694 Y248.803 E113.02431
G1 X267.464 Y249.007 E113.04525
G0 F4500 X268.316 Y249.851
G1 F3000 X268.424 Y249.742 E113.0557
G1 X268.577 Y249.7 E113.0665
G1 X368.577 Y249.7 E119.87651
G1 X368.726 Y249.739 E119.887
G1 X368.835 Y249.847 E119.89745
G1 X368.877 Y250 E119.90826
G1 X368.877 Y350 E126.71827
G1 X368.838 Y350.149 E126.72876
G1 X368.73 Y350.258 E126.73921
G1 X368.577 Y350.3 E126.75001
G1 X268.577 Y350.3 E133.56003
G1 X268.428 Y350.261 E133.57052
G1 X268.319 Y350.153 E133.58096
G1 X268.277 Y350 E133.59177
G1 X268.277 Y250 E140.40178
G1 X268.316 Y249.851 E140.41227
G0 F4500 X267.736 Y249.699
G1 F3000 X267.89 Y249.429 E140.43344
G1 X267.998 Y249.32 E140.44389
G1 X268.265 Y249.163 E140.46498
G1 X268.577 Y249.1 E140.48666
G1 X368.577 Y249.1 E147.29667
G1 X368.878 Y249.159 E147.31756
G1 X369.148 Y249.313 E147.33873
G1 X369.257 Y249.421 E147.34918
G1 X369.414 Y249.688 E147.37027
G1 X369.477 Y250 E147.39194
G1 X369.477 Y350 E154.20196
G1 X369.418 Y350.301 E154.22285
G1 X369.264 Y350.571 E154.24401
G1 X369.009 Y350.789 E154.26686
G1 X368.577 Y350.9 E154.29723
G1 X268.577 Y350.9 E161.10725
G1 X268.276 Y350.841 E161.12814
G1 X268.006 Y350.687 E161.1493
G1 X267.897 Y350.579 E161.15975
G1 X267.74 Y350.312 E161.18085
G1 X267.677 Y350 E161.20252
G1 X267.677 Y250 E168.01253
G1 X267.736 Y249.699 E168.03342
G1 F3000 E167.03342
G1 F600 Z1.3
;MESH:_model1.stl
G0 F4500 X270.676 Y252.1 Z1.3
;TYPE:WALL-INNER
G1 F600 Z0.3
G1 F2100 E168.03342
G1 F3000 X270.676 Y347.9 E174.55741
G1 X366.476 Y347.9 E181.08141
G1 X366.476 Y252.1 E187.6054
G1 X270.676 Y252.1 E194.12939
G0 F4500 X270.076 Y251.5
G1 F3000 X270.076 Y348.5 E200.7351
G1 X367.076 Y348.5 E207.34082
G1 X367.076 Y251.5 E213.94653
G1 X270.076 Y251.5 E220.55224
G0 F4500 X269.476 Y250.9
G1 F3000 X269.476 Y349.1 E227.23967
G1 X367.676 Y349.1 E233.92711
G1 X367.676 Y250.9 E240.61454
G1 X269.476 Y250.9 E247.30197
G0 F4500 X268.876 Y250.3
;TYPE:WALL-OUTER
G1 F3000 X268.876 Y349.7 E254.07112
G1 X368.276 Y349.7 E260.84028
G1 X368.276 Y250.3 E267.60943
G1 X268.876 Y250.3 E274.37858
G0 F4500 X268.876 Y251.3
G0 X269.577 Y251.3
G0 X271.244 Y252.668
;TYPE:SKIN
G1 F3000 X365.904 Y252.668 E280.82494
G1 X365.904 Y347.328 E287.2713
G1 X271.244 Y347.328 E293.71765
G1 X271.244 Y252.668 E300.16401
G0 F4500 X365.604 Y253.598
G1 F3000 X364.974 Y252.968 E300.22469
G0 F4500 X364.125 Y252.968
G1 F3000 X365.604 Y254.447 E300.36713
G0 F4500 X365.604 Y255.295
G1 F3000 X363.277 Y252.968 E300.59124
G0 F4500 X362.428 Y252.968
G1 F3000 X365.604 Y256.144 E300.89711
G0 F4500 X365.604 Y256.992
G1 F3000 X361.58 Y252.968 E301.28465
G0 F4500 X360.731 Y252.968
G1 F3000 X365.604 Y257.841 E301.75396
G0 F4500 X365.604 Y258.689
G1 F3000 X359.883 Y252.968 E302.30494
G0 F4500 X359.034 Y252.968
G1 F3000 X365.604 Y259.538 E302.93769
G0 F4500 X365.604 Y260.386
G1 F3000 X358.186 Y252.968 E303.6521
G0 F4500 X357.337 Y252.968
G1 F3000 X365.604 Y261.235 E304.44828
G0 F4500 X365.604 Y262.083
G1 F3000 X356.489 Y252.968 E305.32613
G0 F4500 X355.64 Y252.968
G1 F3000 X365.604 Y262.932 E306.28574
G0 F4500 X365.604 Y263.781
G1 F3000 X354.792 Y252.968 E307.32707
G0 F4500 X353.943 Y252.968
G1 F3000 X365.604 Y264.629 E308.45012
G0 F4500 X365.604 Y265.478
G1 F3000 X353.094 Y252.968 E309.65494
G0 F4500 X352.246 Y252.968
G1 F3000 X365.604 Y266.326 E310.94142
G0 F4500 X365.604 Y267.175
G1 F3000 X351.397 Y252.968 E312.30967
G0 F4500 X350.549 Y252.968
G1 F3000 X365.604 Y268.023 E313.75959
G0 F4500 X365.604 Y268.872
G1 F3000 X349.7 Y252.968 E315.29127
G0 F4500 X348.852 Y252.968
G1 F3000 X365.604 Y269.72 E316.90463
G0 F4500 X365.604 Y270.569
G1 F3000 X348.003 Y252.968 E318.59975
G0 F4500 X347.155 Y252.968
G1 F3000 X365.604 Y271.417 E320.37653
G0 F4500 X365.604 Y272.266
G1 F3000 X346.306 Y252.968 E322.23509
G0 F4500 X345.458 Y252.968
G1 F3000 X365.604 Y273.114 E324.17531
G0 F4500 X365.604 Y273.963
G1 F3000 X344.609 Y252.968 E326.1973
G0 F4500 X343.761 Y252.968
G1 F3000 X365.604 Y274.811 E328.30096
G0 F4500 X365.604 Y275.66
G1 F3000 X342.912 Y252.968 E330.48638
G0 F4500 X342.064 Y252.968
G1 F3000 X365.604 Y276.508 E332.75348
G0 F4500 X365.604 Y277.357
G1 F3000 X341.215 Y252.968 E335.10234
G0 F4500 X340.367 Y252.968
G1 F3000 X365.604 Y278.206 E337.53291
G0 F4500 X365.604 Y279.054
G1 F3000 X339.518 Y252.968 E340.04521
G0 F4500 X338.669 Y252.968
G1 F3000 X365.604 Y279.903 E342.63926
G0 F4500 X365.604 Y280.751
G1 F3000 X337.821 Y252.968 E345.31499
G0 F4500 X336.972 Y252.968
G1 F3000 X365.604 Y281.6 E348.07249
G0 F4500 X365.604 Y282.448
G1 F3000 X336.124 Y252.968 E350.91165
G0 F4500 X335.275 Y252.968
G1 F3000 X365.604 Y283.297 E353.83258
G0 F4500 X365.604 Y284.145
G1 F3000 X334.427 Y252.968 E356.83518
G0 F4500 X333.578 Y252.968
G1 F3000 X365.604 Y284.994 E359.91954
G0 F4500 X365.604 Y285.842
G1 F3000 X332.73 Y252.968 E363.08558
G0 F4500 X331.881 Y252.968
G1 F3000 X365.604 Y286.691 E366.33337
G0 F4500 X365.604 Y287.539
G1 F3000 X331.033 Y252.968 E369.66284
G0 F4500 X330.184 Y252.968
G1 F3000 X365.604 Y288.388 E373.07408
G0 F4500 X365.604 Y289.236
G1 F3000 X329.336 Y252.968 E376.56698
G0 F4500 X328.487 Y252.968
G1 F3000 X365.604 Y290.085 E380.14165
G0 F4500 X365.604 Y290.933
G1 F3000 X327.639 Y252.968 E383.79799
G0 F4500 X326.79 Y252.968
G1 F3000 X365.604 Y291.782 E387.53609
G0 F4500 X365.604 Y292.63
G1 F3000 X325.942 Y252.968 E391.35586
G0 F4500 X325.093 Y252.968
G1 F3000 X365.604 Y293.479 E395.2574
G0 F4500 X365.604 Y294.328
G1 F3000 X324.245 Y252.968 E399.24066
G0 F4500 X323.396 Y252.968
G1 F3000 X365.604 Y295.176 E403.30563
G0 F4500 X365.604 Y296.025
G1 F3000 X322.547 Y252.968 E407.45237
G0 F4500 X321.699 Y252.968
G1 F3000 X365.604 Y296.873 E411.68078
G0 F4500 X365.604 Y297.722
G1 F3000 X320.85 Y252.968 E415.99095
G0 F4500 X320.002 Y252.968
G1 F3000 X365.604 Y298.57 E420.38279
G0 F4500 X365.604 Y299.419
G1 F3000 X319.153 Y252.968 E424.8564
G0 F4500 X318.305 Y252.968
G1 F3000 X365.604 Y300.267 E429.41168
G0 F4500 X365.604 Y301.116
G1 F3000 X317.456 Y252.968 E434.04872
G0 F4500 X316.608 Y252.968
G1 F3000 X365.604 Y301.964 E438.76744
G0 F4500 X365.604 Y302.813
G1 F3000 X315.759 Y252.968 E443.56791
G0 F4500 X314.911 Y252.968
G1 F3000 X365.604 Y303.661 E448.45006
G0 F4500 X365.604 Y304.51
G1 F3000 X314.062 Y252.968 E453.41398
G0 F4500 X313.214 Y252.968
G1 F3000 X365.604 Y305.358 E458.45956
G0 F4500 X365.604 Y306.207
G1 F3000 X312.365 Y252.968 E463.58691
G0 F4500 X311.517 Y252.968
G1 F3000 X365.604 Y307.055 E468.79592
G0 F4500 X365.604 Y307.904
G1 F3000 X310.668 Y252.968 E474.08671
G0 F4500 X309.82 Y252.968
G1 F3000 X365.604 Y308.753 E479.45921
G0 F4500 X365.604 Y309.601
G1 F3000 X308.971 Y252.968 E484.91342
G0 F4500 X308.122 Y252.968
G1 F3000 X365.604 Y310.45 E490.44941
G0 F4500 X365.604 Y311.298
G1 F3000 X307.274 Y252.968 E496.06706
G0 F4500 X306.425 Y252.968
G1 F3000 X365.604 Y312.147 E501.76648
G0 F4500 X365.604 Y312.995
G1 F3000 X305.577 Y252.968 E507.54757
G0 F4500 X304.728 Y252.968
G1 F3000 X365.604 Y313.844 E513.41042
G0 F4500 X365.604 Y314.692
G1 F3000 X303.88 Y252.968 E519.35494
G0 F4500 X303.031 Y252.968
G1 F3000 X365.604 Y315.541 E525.38123
G0 F4500 X365.604 Y316.389
G1 F3000 X302.183 Y252.968 E531.48919
G0 F4500 X301.334 Y252.968
G1 F3000 X365.604 Y317.238 E537.67891
G0 F4500 X365.604 Y318.086
G1 F3000 X300.486 Y252.968 E543.9503
G0 F4500 X299.637 Y252.968
G1 F3000 X365.604 Y318.935 E550.30346
G0 F4500 X365.604 Y319.783
G1 F3000 X298.789 Y252.968 E556.73829
G0 F4500 X297.94 Y252.968
G1 F3000 X365.604 Y320.632 E563.25488
G0 F4500 X365.604 Y321.48
G1 F3000 X297.092 Y252.968 E569.85314
G0 F4500 X296.243 Y252.968
G1 F3000 X365.604 Y322.329 E576.53317
G0 F4500 X365.604 Y323.177
G1 F3000 X295.395 Y252.968 E583.29487
G0 F4500 X294.546 Y252.968
G1 F3000 X365.604 Y324.026 E590.13833
G0 F4500 X365.604 Y324.875
G1 F3000 X293.698 Y252.968 E597.06351
G0 F4500 X292.849 Y252.968
G1 F3000 X365.604 Y325.723 E604.07041
G0 F4500 X365.604 Y326.572
G1 F3000 X292 Y252.968 E611.15907
G0 F4500 X291.152 Y252.968
G1 F3000 X365.604 Y327.42 E618.3294
G0 F4500 X365.604 Y328.269
G1 F3000 X290.303 Y252.968 E625.5815
G0 F4500 X289.455 Y252.968
G1 F3000 X365.604 Y329.117 E632.91527
G0 F4500 X365.604 Y329.966
G1 F3000 X288.606 Y252.968 E640.3308
G0 F4500 X287.758 Y252.968
G1 F3000 X365.604 Y330.814 E647.828
G0 F4500 X365.604 Y331.663
G1 F3000 X286.909 Y252.968 E655.40697
G0 F4500 X286.061 Y252.968
G1 F3000 X365.604 Y332.511 E663.06761
G0 F4500 X365.604 Y333.36
G1 F3000 X285.212 Y252.968 E670.81001
G0 F4500 X284.364 Y252.968
G1 F3000 X365.604 Y334.208 E678.63408
G0 F4500 X365.604 Y335.057
G1 F3000 X283.515 Y252.968 E686.53992
G0 F4500 X282.667 Y252.968
G1 F3000 X365.604 Y335.905 E694.52743
G0 F4500 X365.604 Y336.754
G1 F3000 X281.818 Y252.968 E702.5967
G0 F4500 X280.97 Y252.968
G1 F3000 X365.604 Y337.602 E710.74764
G0 F4500 X365.604 Y338.451
G1 F3000 X280.121 Y252.968 E718.98035
G0 F4500 X279.273 Y252.968
G1 F3000 X365.604 Y339.3 E727.29477
G0 F4500 X365.604 Y340.148
G1 F3000 X278.424 Y252.968 E735.69092
G0 F4500 X277.575 Y252.968
G1 F3000 X365.604 Y340.997 E744.16882
G0 F4500 X365.604 Y341.845
G1 F3000 X276.727 Y252.968 E752.7284
G0 F4500 X275.878 Y252.968
G1 F3000 X365.604 Y342.694 E761.36974
G0 F4500 X365.604 Y343.542
G1 F3000 X275.03 Y252.968 E770.09275
G0 F4500 X274.181 Y252.968
G1 F3000 X365.604 Y344.391 E778.89753
G0 F4500 X365.604 Y345.239
G1 F3000 X273.333 Y252.968 E787.78398
G0 F4500 X272.484 Y252.968
G1 F3000 X365.604 Y346.088 E796.75219
G0 F4500 X365.604 Y346.936
G1 F3000 X271.636 Y252.968 E805.80207
G0 F4500 X271.544 Y253.725
G1 F3000 X364.847 Y347.028 E814.78791
G0 F4500 X363.998 Y347.028
G1 F3000 X271.544 Y254.573 E823.69203
G0 F4500 X271.544 Y255.422
G1 F3000 X363.15 Y347.028 E832.51443
G0 F4500 X362.301 Y347.028
G1 F3000 X271.544 Y256.27 E841.25512
G0 F4500 X271.544 Y257.119
G1 F3000 X361.452 Y347.028 E849.91403
G0 F4500 X360.604 Y347.028
G1 F3000 X271.544 Y257.967 E858.49128
G0 F4500 X271.544 Y258.816
G1 F3000 X359.755 Y347.028 E866.98677
G0 F4500 X358.907 Y347.028
G1 F3000 X271.544 Y259.664 E875.40058
G0 F4500 X271.544 Y260.513
G1 F3000 X358.058 Y347.028 E883.73263
G0 F4500 X357.21 Y347.028
G1 F3000 X271.544 Y261.362 E891.98296
G0 F4500 X271.544 Y262.21
G1 F3000 X356.361 Y347.028 E900.15158
G0 F4500 X355.513 Y347.028
G1 F3000 X271.544 Y263.059 E908.23847
G0 F4500 X271.544 Y263.907
G1 F3000 X354.664 Y347.028 E916.24365
G0 F4500 X353.816 Y347.028
G1 F3000 X271.544 Y264.756 E924.16711
G0 F4500 X271.544 Y265.604
G1 F3000 X352.967 Y347.028 E932.00886
G0 F4500 X352.119 Y347.028
G1 F3000 X271.544 Y266.453 E939.76889
G0 F4500 X271.544 Y267.301
G1 F3000 X351.27 Y347.028 E947.4472
G0 F4500 X350.422 Y347.028
G1 F3000 X271.544 Y268.15 E955.04379
G0 F4500 X271.544 Y268.998
G1 F3000 X349.573 Y347.028 E962.55866
G0 F4500 X348.725 Y347.028
G1 F3000 X271.544 Y269.847 E969.99182
G0 F4500 X271.544 Y270.695
G1 F3000 X347.876 Y347.028 E977.34326
G0 F4500 X347.028 Y347.028
G1 F3000 X271.544 Y271.544 E984.61298
G0 F4500 X271.544 Y272.392
G1 F3000 X346.179 Y347.028 E991.80099
G0 F4500 X345.33 Y347.028
G1 F3000 X271.544 Y273.241 E998.90723
G0 F4500 X271.544 Y274.089
G1 F3000 X344.482 Y347.028 E1005.9318
G0 F4500 X343.633 Y347.028
G1 F3000 X271.544 Y274.938 E1012.8746
G0 F4500 X271.544 Y275.786
G1 F3000 X342.785 Y347.028 E1019.73574
G0 F4500 X341.936 Y347.028
G1 F3000 X271.544 Y276.635 E1026.5151
G0 F4500 X271.544 Y277.484
G1 F3000 X341.088 Y347.028 E1033.21276
G0 F4500 X340.239 Y347.028
G1 F3000 X271.544 Y278.332 E1039.82869
G0 F4500 X271.544 Y279.181
G1 F3000 X339.391 Y347.028 E1046.36291
G0 F4500 X338.542 Y347.028
G1 F3000 X271.544 Y280.029 E1052.81541
G0 F4500 X271.544 Y280.878
G1 F3000 X337.694 Y347.028 E1059.18619
G0 F4500 X336.845 Y347.028
G1 F3000 X271.544 Y281.726 E1065.47526
G0 F4500 X271.544 Y282.575
G1 F3000 X335.997 Y347.028 E1071.6826
G0 F4500 X335.148 Y347.028
G1 F3000 X271.544 Y283.423 E1077.80823
G0 F4500 X271.544 Y284.272
